src/assets/images/icon-love.inline.svg

<?xml version="1.0" encoding="UTF-8"?>
<svg width="148px" height="148px" viewBox="0 0 148 148" version="1.1" xmlns="http://www.w3.org/2000/svg" xmlns:xlink="http://www.w3.org/1999/xlink">
    <!-- Generator: Sketch 54.1 (76490) - https://sketchapp.com -->
    <title>Group 15</title>
    <desc>Created with Sketch.</desc>
    <defs>
        <polygon id="path-1" points="0 0.251472414 81.923 0.251472414 81.923 72.7482507 0 72.7482507"></polygon>
    </defs>
    <g id="Page-1" stroke="none" stroke-width="1" fill="none" fill-rule="evenodd">
        <g id="Desktop-HD-Copy-2" transform="translate(-983.000000, -3249.000000)">
            <g id="Group-15" transform="translate(983.000000, 3249.000000)">
                <circle id="Oval-Copy-2" fill="#F3F2EE" cx="74" cy="74" r="74"></circle>
                <g id="Group-3" transform="translate(35.000000, 42.000000)">
                    <mask id="mask-2" fill="white">
                        <use xlink:href="#path-1"></use>
                    </mask>
                    <g id="Clip-2"></g>
                    <path d="M28.887,63.5746679 C31.957,66.1837886 35.13175,68.8817679 38.50525,71.8256817 C39.21,72.4406438 40.0855,72.7482507 40.96125,72.7482507 C41.83675,72.7482507 42.7125,72.4406438 43.41725,71.8256817 C46.79025,68.8822714 49.9645,66.1845438 53.0345,63.5759266 C58.37,59.0413679 62.97775,55.1255472 66.97625,51.32703 C74.7395,43.9520162 81.923,35.58093 81.923,24.3638507 C81.923,17.98793 79.74925,12.0167817 75.80225,7.55018862 C71.643,2.84345069 65.87725,0.251447241 59.56725,0.251447241 C52.52425,0.251447241 46.419,3.60466448 41.91175,9.94836448 C41.57375,10.4238714 41.2575,10.89963 40.96125,11.3703541 C40.66525,10.8993783 40.349,10.4238714 40.011,9.94836448 C35.50375,3.60466448 29.3985,0.251447241 22.3555,0.251447241 C16.0455,0.251447241 10.27975,2.84345069 6.12075,7.5499369 C2.17375,12.01653 0,17.9876783 0,24.363599 C0,31.2923059 2.67025,37.6858472 8.40275,44.4849162 C13.40475,50.4167955 20.5795,56.5143093 28.887,63.5746679" id="Fill-1" fill="#E5798D" mask="url(#mask-2)"></path>
                </g>
            </g>
        </g>
    </g>
</svg>

<svg width="148" height="148" xmlns="http://www.w3.org/2000/svg" xmlns:xlink="http://www.w3.org/1999/xlink"><defs><path id="a" d="M0 .251h81.923v72.497H0z"/></defs><g fill="none" fill-rule="evenodd"><circle fill="#F3F2EE" cx="74" cy="74" r="74"/><g transform="translate(35 42)"><mask id="b" fill="#fff"><use xlink:href="#a"/></mask><path d="M28.887 63.575c3.07 2.609 6.245 5.307 9.618 8.25a3.727 3.727 0 0 0 4.912 0 941.007 941.007 0 0 1 9.617-8.25c5.336-4.534 9.944-8.45 13.942-12.248 7.764-7.375 14.947-15.746 14.947-26.963 0-6.376-2.174-12.347-6.12-16.814C71.642 2.843 65.876.251 59.566.251c-7.043 0-13.148 3.354-17.655 9.697-.338.476-.654.952-.95 1.422a30.092 30.092 0 0 0-.951-1.422C35.504 3.605 29.398.251 22.355.251c-6.31 0-12.075 2.592-16.234 7.299C2.174 12.017 0 17.988 0 24.364c0 6.928 2.67 13.322 8.403 20.12 5.002 5.933 12.176 12.03 20.484 19.09" fill="#E5798D" mask="url(#b)"/></g></g></svg>
